X: 162126
T: Palmer's Gate
C: Joe Liddy
Z: BB
S: "The Leitrim Fiddler" (Dublin 1981)
L: 1/8
M: 4/4
R: reel
Q: 1/4 = 180
K: Edor
GA | BEEF GABG | AdBA GEED | G3A BAGA | BedB A2 GA |
BEEF GABG | AdBA GEED | GABd edBA | GEFD E2 :|
GA | Beed e2 ef | gefd edBA | G2 BG dGBA | GABe dBAd |
Beed e2 ef | gefd edBA | GABd edBA | GEFD E2 :|
%%%%%%%%%%%%%%%%%%%%%%%
